modules/themify-icons/icons/light-bulb.svg

<?xml version="1.0" encoding="utf-8"?>
<!-- Generated by IcoMoon.io -->
<!DOCTYPE svg PUBLIC "-//W3C//DTD SVG 1.1//EN" "http://www.w3.org/Graphics/SVG/1.1/DTD/svg11.dtd">
<svg version="1.1" xmlns="http://www.w3.org/2000/svg" xmlns:xlink="http://www.w3.org/1999/xlink" width="17" height="17" viewBox="0 0 17 17">
<g>
</g>
	<path d="M8.5 0c-3.032 0-5.5 2.617-5.5 5.833 0 2.354 0.964 3.67 1.814 4.831 0.637 0.868 1.186 1.618 1.186 2.673v2.096c0 0.864 0.673 1.567 1.5 1.567h2c0.827 0 1.5-0.703 1.5-1.567v-2.126c0-1.045 0.517-1.735 1.17-2.609 0.815-1.091 1.83-2.447 1.83-4.865 0-3.216-2.468-5.833-5.5-5.833zM9.5 16h-2c-0.275 0-0.5-0.254-0.5-0.567v-1.633h3v1.633c0 0.313-0.225 0.567-0.5 0.567zM11.369 10.099c-0.587 0.785-1.19 1.593-1.336 2.701h-3.072c-0.152-1.102-0.754-1.927-1.34-2.727-0.797-1.088-1.621-2.213-1.621-4.24 0-2.665 2.019-4.833 4.5-4.833s4.5 2.168 4.5 4.833c0 2.085-0.829 3.194-1.631 4.266z" fill="#000000" />
</svg>

<svg xmlns="http://www.w3.org/2000/svg" width="17" height="17" viewBox="0 0 17 17"><path d="M8.5 0C5.468 0 3 2.617 3 5.833c0 2.354.964 3.67 1.814 4.831C5.451 11.532 6 12.282 6 13.337v2.096C6 16.297 6.673 17 7.5 17h2c.827 0 1.5-.703 1.5-1.567v-2.126c0-1.045.517-1.735 1.17-2.609C12.985 9.607 14 8.251 14 5.833 14 2.617 11.532 0 8.5 0zm1 16h-2c-.275 0-.5-.254-.5-.567V13.8h3v1.633c0 .313-.225.567-.5.567zm1.869-5.901c-.587.785-1.19 1.593-1.336 2.701H6.961c-.152-1.102-.754-1.927-1.34-2.727C4.824 8.985 4 7.86 4 5.833 4 3.168 6.019 1 8.5 1S13 3.168 13 5.833c0 2.085-.829 3.194-1.631 4.266z"/></svg>
